X:376
T: "Der Dollinger"
N: Z1056
O: Europa, Mitteleuropa, Deutschland, Franken
R: Romanze, Ballade
M: 4/4
L: 1/8
K: G
D2 | G2G2G2GA | _B3BB3
_e | d2c_BAGFG | A2z4
GA | _B2B2B2cB | _BAA2A2
BA | AGG2G_BAG | GFF2F2
d_B | G2G2A2A2 | _B3cd2
dB | G2G2_BAGF | G4z2

@@@ Tune index: 10134
